X:87
M:4/4
L:1/8
K:A
c>ee>c e2 c2 | B>cB>A F2E>F | A3B c2e>c | B2 A2 [1 A2 :|[2 A4
|: e3c e2c>B | A>Bc>B A>Bc>e | f2a>f f2a>f | e3c c>BA>B | 
c3B c4 | B>cB>A F2E>F | A3B c2e>c | B2 A2 A4 :|| 

